svg/color/pfeon.svg

<svg width="40" height="40" viewBox="0 0 40 40" fill="none" xmlns="http://www.w3.org/2000/svg">
<g clip-path="url(#clip0_819_3575)">
<path d="M20 0C31.0457 0 40 8.9543 40 20C40 31.0457 31.0457 40 20 40C8.95431 40 7.90517e-06 31.0457 0 20C6.58765e-07 8.95431 8.95431 1.97595e-06 20 0Z" fill="#CCCCF4"/>
<path d="M26 6C30.4183 6 34 9.58172 34 14V26C34 30.4183 30.4183 34 26 34H14C9.58172 34 6 30.4183 6 26V14C6 9.58172 9.58172 6 14 6H26Z" fill="#0000C9"/>
<g clip-path="url(#clip1_819_3575)">
<path d="M12.6611 20.3026C14.1401 19.7565 16.6594 19.6173 20 20L20.9848 16.2779C17.1779 15.7562 13.1796 16.1423 12.2471 17.4815C11.8364 18.0833 11.7251 19.3425 12.6577 20.3026H12.6611ZM27.3389 19.7008C25.86 20.2469 23.3406 20.3861 20 20.0034L19.0152 23.7255C22.8221 24.2472 26.8204 23.8611 27.753 22.5219C28.1636 21.9201 28.275 20.6609 27.3424 19.7008H27.3389ZM28.6542 21.0122L29.2563 18.7686C29.4755 17.9755 29.5834 17.565 29.5834 17.2345C29.5834 14.3613 22.0496 10.8549 14.8743 10.4166L13.8617 14.1386C21.2562 14.6604 28.8178 18.2468 28.6229 21.0122H28.6508H28.6542ZM11.3458 18.9877L10.7438 21.2314C10.5246 22.0245 10.4167 22.4349 10.4167 22.7654C10.4167 25.6386 17.9504 29.145 25.1257 29.5833L26.1384 25.8613C18.7403 25.3395 11.1822 21.7531 11.3736 18.9877H11.3458Z" fill="white"/>
</g>
</g>
<defs>
<clipPath id="clip0_819_3575">
<rect width="40" height="40" fill="white"/>
</clipPath>
<clipPath id="clip1_819_3575">
<rect width="20" height="20" fill="white" transform="translate(10 10)"/>
</clipPath>
</defs>
</svg>

<svg xmlns="http://www.w3.org/2000/svg" width="40" height="40" fill="none" viewBox="0 0 40 40"><g clip-path="url(#pfeon_svg-a)"><path fill="#CCCCF4" d="M20 0c11.046 0 20 8.954 20 20s-8.954 20-20 20S0 31.046 0 20 8.954 0 20 0"/><path fill="#0000C9" d="M26 6a8 8 0 0 1 8 8v12a8 8 0 0 1-8 8H14a8 8 0 0 1-8-8V14a8 8 0 0 1 8-8z"/><g clip-path="url(#pfeon_svg-b)"><path fill="#fff" d="M12.661 20.303c1.48-.547 3.998-.686 7.339-.303l.985-3.722c-3.807-.522-7.805-.136-8.738 1.204-.41.601-.522 1.86.41 2.82zM27.34 19.7c-1.479.546-3.998.685-7.339.302l-.985 3.723c3.807.521 7.805.135 8.738-1.204.41-.602.522-1.861-.41-2.821zm1.315 1.311.602-2.243c.22-.793.327-1.204.327-1.534 0-2.874-7.533-6.38-14.709-6.818l-1.012 3.722c7.394.521 14.956 4.108 14.76 6.873zm-17.308-2.024-.602 2.243c-.22.793-.327 1.204-.327 1.534 0 2.874 7.533 6.38 14.709 6.818l1.012-3.722c-7.398-.521-14.956-4.108-14.764-6.873z"/></g></g><defs><clipPath id="pfeon_svg-a"><path fill="#fff" d="M0 0h40v40H0z"/></clipPath><clipPath id="pfeon_svg-b"><path fill="#fff" d="M10 10h20v20H10z"/></clipPath></defs></svg>
